brandFactory_export/3.Masa/Favoritos_3Masa.svg

<?xml version="1.0" encoding="UTF-8"?>
<svg width="24px" height="24px" viewBox="0 0 24 24" version="1.1" xmlns="http://www.w3.org/2000/svg" xmlns:xlink="http://www.w3.org/1999/xlink">
    <title>3.Masa/Favoritos_3Masa</title>
    <g id="Symbols" stroke="none" stroke-width="1" fill="none" fill-rule="evenodd">
        <g id="3.Masa/Favoritos_3Masa" fill="#5CB615" fill-rule="nonzero">
            <path d="M17.5361345,23.5966387 C17.112605,23.5966387 16.6991597,23.4890756 16.3294118,23.2840336 L12.0571429,20.9411765 C11.892437,20.8638655 11.7546218,20.8436975 11.589916,20.9512605 L7.33445378,23.2840336 C6.4907563,23.7478992 5.45882353,23.6907563 4.67563025,23.1294118 C3.83865546,22.5378151 3.42857143,21.5294118 3.59663866,20.5008403 L4.39327731,15.6672269 C4.47058824,15.287395 4.40672269,15.1966387 4.17815126,14.9579832 L0.803361345,11.5294118 C0.0907563025,10.8033613 -0.151260504,9.74117647 0.178151261,8.77983193 C0.490756303,7.83865546 1.28067227,7.16302521 2.23529412,7.01848739 L6.91092437,6.3092437 C7.19663866,6.25546218 7.28067227,6.21512605 7.45882353,5.85210084 L9.52605042,1.48907563 C9.95630252,0.571428571 10.8403361,0.00336134454 11.8319328,0.00336134454 C12.8235294,0.00336134454 13.707563,0.574789916 14.1411765,1.48907563 L16.2184874,5.87563025 C16.3865546,6.19159664 16.4403361,6.26218487 16.8067227,6.31596639 L21.4352941,7.01848739 C22.389916,7.16302521 23.1764706,7.83865546 23.492437,8.77983193 C23.8184874,9.74117647 23.5764706,10.8067227 22.8672269,11.5294118 L19.6134454,14.8067227 C19.2403361,15.1798319 19.2268908,15.2134454 19.287395,15.6638655 L20.0672269,20.5008403 C20.2352941,21.5294118 19.8218487,22.5378151 18.9882353,23.1294118 C18.5647059,23.4319328 18.0571429,23.5966387 17.5361345,23.5966387 L17.5361345,23.5966387 Z" id="Path"></path>
        </g>
    </g>
</svg>

<svg width="24" height="24" viewBox="0 0 24 24" xmlns="http://www.w3.org/2000/svg"><path d="M17.536 23.597c-.423 0-.837-.108-1.207-.313l-4.272-2.343c-.165-.077-.302-.097-.467.01l-4.256 2.333a2.495 2.495 0 01-2.658-.155c-.837-.591-1.247-1.6-1.08-2.628l.797-4.834c.078-.38.014-.47-.215-.709L.803 11.529a2.681 2.681 0 01-.625-2.75 2.582 2.582 0 012.057-1.76l4.676-.71c.286-.054.37-.094.548-.457L9.526 1.49C9.956.571 10.84.003 11.832.003s1.876.572 2.31 1.486l2.076 4.387c.169.316.222.386.589.44l4.628.702c.955.145 1.741.82 2.057 1.762a2.694 2.694 0 01-.625 2.75l-3.254 3.277c-.373.373-.386.406-.326.857l.78 4.837a2.668 2.668 0 01-1.079 2.628 2.5 2.5 0 01-1.452.468z" fill="#5CB615" fill-rule="nonzero"/></svg>
